X: 723
T: Lafayette
B: jims roots
M:4/8
L:1/8
Q: 1/4=100
K:D
V:1 
X8 | X8 | D2DD D2DD | D2DD D2DD ||
|:"D"Jfafe d2dd | d2bf afed | fafe d2fg | "A"afdf edBA |
  "D"fafe d2dd | d2bf afed | fafe dBAG | "A"FD2D "D"D2-D2 :|
DEFE DEFE | D2BF AFED | DEFE DEFE | [A,2E][A,E][A,E] [A,2E][A,2E] |
DEFE DEFE | D2BF AFED | fafe dBAG | "A"FD2D "D"D2-D2 :|
% abcbook-tune_id 6298c25dcf7bd5832443e5f1


% abcbook-boost 0
% abcbook-tablature 
% abcbook-transpose 
% abcbook-lastupdated 1654178399593
% abcbook-soundfonts 
% abcbook-repeats 1


